src/actions/24/exchange-positions.svg

<svg xmlns="http://www.w3.org/2000/svg" viewBox="0 0 24 24">
    <path d="M4 4v7h8V4H4zm1 1h6v5H5V5zm8 .078V9h1V6.355A6 6 0 0 1 18 12h1a7 7 0 0 0-6-6.922zM5 12a7 7 0 0 0 6 6.922V15h-1v2.645A6 6 0 0 1 6 12H5zm7 1v7h8v-7h-8zm1 1h6v5h-6v-5z" style="fill:currentColor;fill-opacity:1;stroke:none;color:#050505;opacity:.7"/>
</svg>

<svg xmlns="http://www.w3.org/2000/svg" viewBox="0 0 24 24">
  <defs id="defs3051">
    <style type="text/css" id="current-color-scheme">
      .ColorScheme-Text {
        color:#363636;
      }
      </style>
  </defs>
 <path style="fill:currentColor;fill-opacity:1;stroke:none" 
     d="M 4 4 L 4 11 L 12 11 L 12 4 L 4 4 z M 5 5 L 11 5 L 11 10 L 5 10 L 5 5 z M 13 5.078125 L 13 6.0898438 L 13 9 L 14 9 L 14 6.3554688 A 6 6 0 0 1 18 12 L 19 12 A 7 7 0 0 0 13 5.078125 z M 5 12 A 7 7 0 0 0 11 18.921875 L 11 17.910156 L 11 15 L 10 15 L 10 17.644531 A 6 6 0 0 1 6 12 L 5 12 z M 12 13 L 12 20 L 20 20 L 20 13 L 12 13 z M 13 14 L 19 14 L 19 19 L 13 19 L 13 14 z "
     class="ColorScheme-Text"
     />
</svg>
